epam-assets/icon-sources/18/certificate.svg

<svg width="18" height="18" viewBox="0 0 18 18" fill="none" xmlns="http://www.w3.org/2000/svg">
<g id="18/certificate">
<path id="icon" d="M6.45 16.875L5.025 14.475L2.325 13.875L2.5875 11.1L0.75 9L2.5875 6.9L2.325 4.125L5.025 3.525L6.45 1.125L9 2.2125L11.55 1.125L12.975 3.525L15.675 4.125L15.4125 6.9L17.25 9L15.4125 11.1L15.675 13.875L12.975 14.475L11.55 16.875L9 15.7875L6.45 16.875ZM8.2125 11.6625L12.45 7.425L11.4 6.3375L8.2125 9.525L6.6 7.95L5.55 9L8.2125 11.6625Z" fill="#6C6F80"/>
</g>
</svg>

<svg xmlns="http://www.w3.org/2000/svg" width="18" height="18" fill="none" viewBox="0 0 18 18">
  <path fill="#6C6F80" d="m6.45 16.875-1.425-2.4-2.7-.6.262-2.775L.75 9l1.837-2.1-.262-2.775 2.7-.6 1.425-2.4L9 2.212l2.55-1.087 1.425 2.4 2.7.6-.263 2.775L17.25 9l-1.838 2.1.263 2.775-2.7.6-1.425 2.4L9 15.787l-2.55 1.088Zm1.763-5.213 4.237-4.237-1.05-1.087-3.188 3.187L6.6 7.95 5.55 9l2.663 2.662Z"/>
</svg>
